material/.icons/material/briefcase-download.svg

<svg xmlns="http://www.w3.org/2000/svg" viewBox="0 0 24 24"><path d="M10 2h4a2 2 0 012 2v2h4a2 2 0 012 2v11a2 2 0 01-2 2H4a2 2 0 01-2-2V8c0-1.11.89-2 2-2h4V4c0-1.11.89-2 2-2m4 4V4h-4v2h4m-2 13l5-5h-3v-4h-4v4H7l5 5z"/></svg>

<?xml version="1.0" encoding="UTF-8"?><!DOCTYPE svg PUBLIC "-//W3C//DTD SVG 1.1//EN" "http://www.w3.org/Graphics/SVG/1.1/DTD/svg11.dtd"><svg xmlns="http://www.w3.org/2000/svg" xmlns:xlink="http://www.w3.org/1999/xlink" version="1.1" id="mdi-briefcase-download" width="24" height="24" viewBox="0 0 24 24"><path d="M10,2H14A2,2 0 0,1 16,4V6H20A2,2 0 0,1 22,8V19A2,2 0 0,1 20,21H4C2.89,21 2,20.1 2,19V8C2,6.89 2.89,6 4,6H8V4C8,2.89 8.89,2 10,2M14,6V4H10V6H14M12,19L17,14H14V10H10V14H7L12,19Z" /></svg>
